Obsidian-SemiLight/actions/24s/code-block.svg

<svg viewBox="0 0 24 24" xmlns="http://www.w3.org/2000/svg"><path d="m9 4v6h6v-6zm-5 10v6h6v-6zm10 0v6h6v-6z" fill="#4d4d4d"/></svg>

<svg xmlns="http://www.w3.org/2000/svg" viewBox="0 0 24 24">
  <defs id="defs3051">
    <style type="text/css" id="current-color-scheme">
      .ColorScheme-Text {
        color:#4d4d4d;
      }
      </style>
  </defs>
 <path style="fill:currentColor;fill-opacity:1;stroke:none" 
     d="M 9 4 L 9 10 L 15 10 L 15 4 L 9 4 z M 4 14 L 4 20 L 10 20 L 10 14 L 4 14 z M 14 14 L 14 20 L 20 20 L 20 14 L 14 14 z "
     class="ColorScheme-Text"
     />
</svg>
